X:74
T:Moscow Nights
C:
M:4/4
L:1/8
Q:1/8=440
K:C
G^G|:ABcd edce|d4 cBcd|d[ee]z2 cdBc|A8|
cBcd ef^fg|gaz2 g/a/gf/g/f|ecGc ecGc|^fBAB ^geB2|
b2ab e2b2|abe2 b2ab|e2d2 f4|z4 f^fg=f|
d[ee]z2 cBcd|[e4B4E4] cdBc|A8|[e4^f4A4^D4] [e4^g4B4E4]|
b2ab e2b2|abe2 b2ab|e2d2 f4|z4 f^fg=f|
e4 c2d2|[e4e4^G4E4] cdBG|AGED CB,A,G,|1 E6G^G:|2 A,8|
